src/assets/duotone/Ranking.svg

<?xml version="1.0" encoding="UTF-8"?>
<svg width="24" height="24" viewBox="0 0 24 24" xmlns="http://www.w3.org/2000/svg">
 <path d="M8.67 14H4C2.9 14 2 14.9 2 16V22H8.67V14Z" opacity=".4"/>
 <path d="m13.33 10h-2.67c-1.1 0-2 0.9-2 2v10h6.67v-10c0-1.1-0.89-2-2-2z"/>
 <path d="m20 17h-4.67v5h6.67v-3c0-1.1-0.9-2-2-2z" opacity=".4"/>
 <path d="m15.01 4.8505c0.31-0.31 0.43-0.68 0.33-1s-0.41-0.54999-0.85-0.61999l-0.96-0.16001c-0.04-0.01-0.13-0.07001-0.15-0.11001l-0.53-1.06c-0.4-0.81-1.31-0.81-1.71 0l-0.53 1.06c-0.02 0.04-0.11 0.10001-0.15 0.11001l-0.96003 0.16001c-0.44 0.07-0.74 0.29999-0.85 0.61999-0.1 0.32 0.02 0.69 0.33 1l0.74 0.75c0.03 0.03 0.07 0.15 0.06 0.19l-0.21 0.91999c-0.16 0.68 0.1 0.98999 0.27 1.12 0.17003 0.12 0.54003 0.28002 1.15-0.07999l0.9-0.52999c0.04-0.03 0.17-0.03 0.21 0l0.9 0.52999c0.28 0.17001 0.51 0.22001 0.69 0.22001 0.21 0 0.36-0.08002 0.45-0.14002 0.17-0.12 0.43-0.42999 0.27-1.12l-0.21-0.91999c-0.01-0.05 0.02-0.16 0.06-0.19l0.75-0.75z"/>
</svg>

<svg width="24" height="24" viewBox="0 0 24 24"  xmlns="http://www.w3.org/2000/svg">
<path opacity="0.4" d="M8.67 14H4C2.9 14 2 14.9 2 16V22H8.67V14Z" />
<path d="M13.3302 10H10.6602C9.56016 10 8.66016 10.9 8.66016 12V22H15.3302V12C15.3302 10.9 14.4402 10 13.3302 10Z" />
<path opacity="0.4" d="M20.0001 17H15.3301V22H22.0001V19C22.0001 17.9 21.1001 17 20.0001 17Z" />
<path d="M15.0102 4.85048C15.3202 4.54048 15.4402 4.17048 15.3402 3.85048C15.2402 3.53048 14.9302 3.30049 14.4902 3.23049L13.5302 3.07048C13.4902 3.06048 13.4002 3.00047 13.3802 2.96047L12.8502 1.90047C12.4502 1.09047 11.5402 1.09047 11.1402 1.90047L10.6102 2.96047C10.5902 3.00047 10.5002 3.06048 10.4602 3.07048L9.50017 3.23049C9.06017 3.30049 8.76017 3.53048 8.65017 3.85048C8.55017 4.17048 8.67017 4.54048 8.98017 4.85048L9.72017 5.60048C9.75017 5.63048 9.79017 5.75048 9.78017 5.79048L9.57017 6.71047C9.41017 7.39047 9.67017 7.70046 9.84017 7.83046C10.0102 7.95046 10.3802 8.11048 10.9902 7.75047L11.8902 7.22048C11.9302 7.19048 12.0602 7.19048 12.1002 7.22048L13.0002 7.75047C13.2802 7.92048 13.5102 7.97048 13.6902 7.97048C13.9002 7.97048 14.0502 7.89046 14.1402 7.83046C14.3102 7.71046 14.5702 7.40047 14.4102 6.71047L14.2002 5.79048C14.1902 5.74048 14.2202 5.63048 14.2602 5.60048L15.0102 4.85048Z" />
</svg>
